X: 141010
T: The OYSTER RIVER
Q: "Irish Reel."
R: Reel.
%R: reel
B: James Kerr "Merry Melodies" v.1 p.41 s.0 #10
Z: 2016 John Chambers <jc:trillian.mit.edu>
M: 2/4
L: 1/16
K: G
uD2 |\
G2B2 BAGA | B2e2 efge | d2B2 A2(GA) | BcBA GFED |\
G2B2 BAGA | B2e2 efge | d2B2 A2(GA) | B2G2G2 :|
|: (ef) |\
g3a gfed | g2g2 a2(ga) | b2(ba) gfed | efga gfed |\
g2g2 a2(ga) | b2b2 a2(ga) | b2b2 a2(ga) | b2g2g2 :|

% %newpage
%%sep 1 1 500
%%sep 1 1 500
%%center HORNPIPES AND CLOG DANCES

%%sep 1 1 500
%%sep 1 1 500

